X: 1
T:N°85 "Presto"
N:page 106
S:Manuscrit Wandembrile (1778), Archives de l'Etat à Namur
Z:ABC transcription Olivier VIENNE troubadourwallon@gmail.com
K:Dmaj
M:2/4
L:1/16
"Presto"A2|d2df e2eg|f2a2 a4|g2fe f2ed|e4 A2A2|d2df e2eg|f2a2 a4|g2fe fedc|d4:|
|:e2|f2fa e2eg|f2fa e2eg|f2ed f2ed|e4 A2e2|f2fa e2eg|f2fa e2eg|f2ed fedc|d6:|]





